X: 8002
T: Connaughtman's Rambles, The
R: jig
M: 6/8
K: Dmajor
FAA dAA|BAB dAG|FAA dAA|def gfe|
FAA dAA|BAB dAG|FAA def|gfe f2e:|
fbb faa|ded BAG|fbb faa|dBB B3|
fbb faa|ded BAG|def gfe|dBB B3:|

